app/dist/common/images/inner-mongolia-yitai-coal.svg

<svg height="18" viewBox="0 0 18 18" width="18" xmlns="http://www.w3.org/2000/svg"><path d="m0 0h18v18h-18z" fill="#f0f3fa"/><path d="m9.1 5h-3.5l1.5 2h3.5zm4.4 0h-3.5l1.5 2h3.5z" fill="#377840"/><path d="m9 10.97-4.14-5.64-1.86 2.64 4.2 5.67zm6-2.97h-3.5l-4 6h3.5z"/></svg>

<!-- by TradingView --><svg width="18" height="18" viewBox="0 0 18 18" xmlns="http://www.w3.org/2000/svg"><path fill="#F0F3FA" d="M0 0h18v18H0z"/><path d="M9.1 5H5.6l1.5 2h3.5L9.1 5ZM13.5 5H10l1.5 2H15l-1.5-2Z" fill="#377840"/><path d="M9 10.97 4.86 5.33 3 7.97l4.2 5.67L9 10.97ZM15 8h-3.5l-4 6H11l4-6Z"/></svg>
